icons-dark/actions/16/distribute-horizontal-page.svg

<?xml version="1.0" encoding="UTF-8" standalone="no"?>
<!-- Created with Inkscape (http://www.inkscape.org/) -->

<svg
   xmlns:dc="http://purl.org/dc/elements/1.1/"
   xmlns:cc="http://creativecommons.org/ns#"
   xmlns:rdf="http://www.w3.org/1999/02/22-rdf-syntax-ns#"
   xmlns:svg="http://www.w3.org/2000/svg"
   xmlns="http://www.w3.org/2000/svg"
   xmlns:xlink="http://www.w3.org/1999/xlink"
   xmlns:sodipodi="http://sodipodi.sourceforge.net/DTD/sodipodi-0.dtd"
   xmlns:inkscape="http://www.inkscape.org/namespaces/inkscape"
   width="16"
   height="16"
   id="svg3049"
   version="1.1"
   inkscape:version="0.91 r13725"
   sodipodi:docname="distribute-horizontal-page.svg"
   inkscape:export-filename="/home/uri/.kde/share/icons/NITRUX-KDE/16x16/actions/view-right-new.png"
   inkscape:export-xdpi="30"
   inkscape:export-ydpi="30">
  <defs
     id="defs3051">
    <linearGradient
       gradientTransform="translate(0,-1.9999941)"
       inkscape:collect="always"
       xlink:href="#linearGradient4021-3"
       id="linearGradient4123"
       gradientUnits="userSpaceOnUse"
       x1="3"
       y1="1045.3622"
       x2="15"
       y2="1045.3622" />
    <linearGradient
       id="linearGradient4021-3">
      <stop
         id="stop4023-0"
         offset="0"
         style="stop-color:#b3b3b3;stop-opacity:1;" />
      <stop
         id="stop4025-2"
         offset="1"
         style="stop-color:#f2f2f2;stop-opacity:1;" />
    </linearGradient>
  </defs>
  <sodipodi:namedview
     id="base"
     pagecolor="#ffffff"
     bordercolor="#666666"
     borderopacity="1.0"
     inkscape:pageopacity="0.0"
     inkscape:pageshadow="2"
     inkscape:zoom="45.254834"
     inkscape:cx="8.5078255"
     inkscape:cy="7.2667582"
     inkscape:document-units="px"
     inkscape:current-layer="layer1-6"
     showgrid="true"
     fit-margin-top="0"
     fit-margin-left="0"
     fit-margin-right="0"
     fit-margin-bottom="0"
     inkscape:window-width="1920"
     inkscape:window-height="957"
     inkscape:window-x="-4"
     inkscape:window-y="0"
     inkscape:window-maximized="1"
     inkscape:showpageshadow="false"
     borderlayer="true"
     inkscape:snap-bbox="true"
     inkscape:snap-global="true"
     inkscape:object-nodes="true">
    <inkscape:grid
       type="xygrid"
       id="grid4085" />
    <sodipodi:guide
       position="2.0000044,14.00003"
       orientation="12,0"
       id="guide4075" />
    <sodipodi:guide
       position="2.0000044,2.0000296"
       orientation="0,12"
       id="guide4077" />
    <sodipodi:guide
       position="14,9"
       orientation="-12,0"
       id="guide4079" />
    <sodipodi:guide
       position="14.000004,14.00003"
       orientation="0,-12"
       id="guide4081" />
  </sodipodi:namedview>
  <metadata
     id="metadata3054">
    <rdf:RDF>
      <cc:Work
         rdf:about="">
        <dc:format>image/svg+xml</dc:format>
        <dc:type
           rdf:resource="http://purl.org/dc/dcmitype/StillImage" />
        <dc:title></dc:title>
      </cc:Work>
    </rdf:RDF>
  </metadata>
  <g
     inkscape:label="Capa 1"
     inkscape:groupmode="layer"
     id="layer1"
     transform="translate(-421.71429,-531.79074)">
    <g
       transform="matrix(0.75,0,0,0.74999813,421.46429,-241.22897)"
       id="layer1-0"
       inkscape:label="Capa 1">
      <g
         transform="translate(6.2937501e-7,-2.041003e-4)"
         id="layer1-6"
         inkscape:label="Capa 1">
        <path
           style="fill:#f2f2f2;fill-opacity:1;fill-rule:evenodd;stroke:none"
           d="m 4.333333,1036.0291 0,10.6666 5.333333,10e-5 0,-10.6667 z m 1.333333,1.3333 2.666667,0 0,8 -2.666667,0 z"
           id="rect4285"
           inkscape:connector-curvature="0"
           sodipodi:nodetypes="cccccccccc" />
        <path
           style="fill:#f2f2f2;fill-opacity:1;fill-rule:evenodd;stroke:none"
           d="M 9 4 L 9 12 L 11 12 L 11 11 L 10 11 L 10 5 L 12 5 L 12 11 L 13 11 L 13 4 L 9 4 z "
           transform="matrix(1.3333333,0,0,1.3333367,0.3333327,1030.6957)"
           id="rect4285-1" />
        <path
           style="fill:#f2f2f2;fill-opacity:1;fill-rule:evenodd;stroke:none"
           d="m 1,1 0,14 10,0 2,1.5e-5 2,-2 0,-1 L 15,1 Z m 1,1 12,0 0,10.000015 -2,0 0,1.99997 L 2,14 Z"
           transform="matrix(1.3333333,0,0,1.3333367,0.3333327,1030.6957)"
           id="rect4373"
           inkscape:connector-curvature="0"
           sodipodi:nodetypes="ccccccccccccccc" />
      </g>
    </g>
  </g>
</svg>

<svg xmlns="http://www.w3.org/2000/svg" viewBox="0 0 16 16">
  <defs id="defs3051">
    <style type="text/css" id="current-color-scheme">
      .ColorScheme-Text {
        color:#f2f2f2;
      }
      </style>
  </defs>
 <path style="fill:currentColor;fill-opacity:1;stroke:none" 
     d="M 1 1 L 1 15 L 11 15 L 13 15 L 15 13 L 15 12 L 15 1 L 1 1 z M 2 2 L 14 2 L 14 12 L 12 12 L 12 14 L 2 14 L 2 2 z M 3 4 L 3 12 L 7 12 L 7 4 L 3 4 z M 9 4 L 9 12 L 11 12 L 11 11 L 10 11 L 10 5 L 12 5 L 12 11 L 13 11 L 13 4 L 9 4 z M 4 5 L 6 5 L 6 11 L 4 11 L 4 5 z "
     class="ColorScheme-Text"
     />
</svg>
